Sweet-Rainbow/icons/akregator.svg

<?xml version="1.0" encoding="UTF-8" standalone="no"?>
<!-- Generator: Gravit.io -->

<svg
   xmlns:dc="http://purl.org/dc/elements/1.1/"
   xmlns:cc="http://creativecommons.org/ns#"
   xmlns:rdf="http://www.w3.org/1999/02/22-rdf-syntax-ns#"
   xmlns:svg="http://www.w3.org/2000/svg"
   xmlns="http://www.w3.org/2000/svg"
   xmlns:sodipodi="http://sodipodi.sourceforge.net/DTD/sodipodi-0.dtd"
   xmlns:inkscape="http://www.inkscape.org/namespaces/inkscape"
   style="isolation:isolate"
   viewBox="0 0 36 36"
   width="48"
   height="48"
   version="1.1"
   id="svg9"
   sodipodi:docname="akregator.svg"
   inkscape:version="0.92.4 (5da689c313, 2019-01-14)">
  <metadata
     id="metadata15">
    <rdf:RDF>
      <cc:Work
         rdf:about="">
        <dc:format>image/svg+xml</dc:format>
        <dc:type
           rdf:resource="http://purl.org/dc/dcmitype/StillImage" />
        <dc:title></dc:title>
      </cc:Work>
    </rdf:RDF>
  </metadata>
  <defs
     id="defs13" />
  <sodipodi:namedview
     pagecolor="#ffffff"
     bordercolor="#666666"
     borderopacity="1"
     objecttolerance="10"
     gridtolerance="10"
     guidetolerance="10"
     inkscape:pageopacity="0"
     inkscape:pageshadow="2"
     inkscape:window-width="640"
     inkscape:window-height="480"
     id="namedview11"
     showgrid="false"
     inkscape:zoom="29.365243"
     inkscape:cx="25.325443"
     inkscape:cy="32"
     inkscape:current-layer="svg9"
     units="px" />
  <linearGradient
     id="_lgradient_11"
     x1="0.056818184"
     y1="0.95426828"
     x2="0.96242028"
     y2="0.059290756"
     gradientTransform="matrix(44,0,0,41,2,5)"
     gradientUnits="userSpaceOnUse">
    <stop
       offset="0%"
       stop-opacity="1"
       style="stop-color:rgb(241,39,17)"
       id="stop2" />
    <stop
       offset="99.1304347826087%"
       stop-opacity="1"
       style="stop-color:rgb(245,175,25)"
       id="stop4" />
  </linearGradient>
  <g
     id="g826"
     transform="matrix(0.81818182,0,0,0.81818182,-1.6363637,-2.8636364)">
    <path
       id="path7"
       d="m 8,36 c 0,-2.208 1.792,-4 4,-4 2.208,0 4,1.792 4,4 0,2.208 -1.792,4 -4,4 -2.208,0 -4,-1.792 -4,-4 z m 0.16,6 v 0 C 9.176,42 10,42.896 10,44 v 0 c 0,1.104 -0.78,1.996 -1.74,1.99 v 0 L 8.05,46 C 8.03,46 8.02,46 8,46 6.41,46 4.88,45.37 3.76,44.24 2.63,43.12 2,41.59 2,40 v 0 c 0,-1.104 0.896,-2 2,-2 v 0 c 1.104,0 2,0.896 2,2 v 0 c 0,0.53 0.21,1.03 0.58,1.41 0.37,0.37 0.87,0.58 1.4,0.59 z M 6,32 v 0 c 0,1.104 -0.896,2 -2,2 v 0 C 2.896,34 2,33.104 2,32 V 32 10 C 2,7.24 4.24,5 7,5 h 34 c 2.76,0 5,2.24 5,5 v 6 0 c 0,1.104 -0.896,2 -2,2 v 0 c -1.104,0 -2,-0.896 -2,-2 v 0 -4 C 42,10.344 40.656,9 39,9 H 9 C 7.344,9 6,10.344 6,12 Z m 36,-6 v 0 c 0,-1.104 0.896,-2 2,-2 v 0 c 1.104,0 2,0.896 2,2 v 0 15 c 0,2.76 -2.24,5 -5,5 H 16 v 0 c -1.104,0 -2,-0.896 -2,-2 v 0 c 0,-1.104 0.896,-2 2,-2 v 0 h 23 c 1.656,0 3,-1.344 3,-3 z m -30.43,0.51 v 0 c -0.828,0.017 -1.513,-0.642 -1.53,-1.47 v 0 c -0.017,-0.828 0.642,-1.513 1.47,-1.53 v 0 l 0.46,-0.01 c 0.01,0 0.02,0 0.03,0 2.98,0 5.86,1.06 8.12,3 2.27,1.93 3.77,4.61 4.23,7.55 v 0 c 0.127,0.817 -0.433,1.585 -1.25,1.715 v 0 c -0.817,0.13 -1.583,-0.428 -1.71,-1.245 v 0 C 21.03,32.29 19.9,30.25 18.18,28.78 16.46,27.31 14.28,26.5 12.02,26.5 Z m 0.05,-6.01 v 0 c -0.828,0.011 -1.507,-0.652 -1.515,-1.48 v 0 c -0.008,-0.828 0.657,-1.509 1.485,-1.52 v 0 h 0.39 c 0.01,0 0.01,0 0.02,0 4.61,0 9.05,1.72 12.46,4.82 3.41,3.1 5.53,7.37 5.96,11.96 v 0 c 0.077,0.822 -0.53,1.553 -1.355,1.63 v 0 C 28.24,35.987 27.507,35.382 27.43,34.56 v 0 C 27.08,30.71 25.3,27.14 22.44,24.54 19.59,21.94 15.87,20.5 12.01,20.5 Z"
       style="fill:url(#_lgradient_11);fill-rule:evenodd"
       inkscape:connector-curvature="0" />
  </g>
</svg>

<?xml version="1.0" encoding="UTF-8" standalone="no"?><!-- Generator: Gravit.io --><svg xmlns="http://www.w3.org/2000/svg" xmlns:xlink="http://www.w3.org/1999/xlink" style="isolation:isolate" viewBox="0 0 48 48" width="48pt" height="48pt"><linearGradient id="_lgradient_11" x1="0.05681818181818182" y1="0.9542682926829268" x2="0.9624202551834131" y2="0.05929075738125844" gradientTransform="matrix(44,0,0,41,2,5)" gradientUnits="userSpaceOnUse"><stop offset="0%" stop-opacity="1" style="stop-color:rgb(241,39,17)"/><stop offset="99.1304347826087%" stop-opacity="1" style="stop-color:rgb(245,175,25)"/></linearGradient><path d=" M 8 36 C 8 33.792 9.792 32 12 32 C 14.208 32 16 33.792 16 36 C 16 38.208 14.208 40 12 40 C 9.792 40 8 38.208 8 36 L 8 36 L 8 36 L 8 36 L 8 36 Z  M 8.16 42 L 8.16 42 C 9.176 42 10 42.896 10 44 L 10 44 C 10 45.104 9.22 45.996 8.26 45.99 L 8.26 45.99 L 8.05 46 C 8.03 46 8.02 46 8 46 C 6.41 46 4.88 45.37 3.76 44.24 C 2.63 43.12 2 41.59 2 40 L 2 40 C 2 38.896 2.896 38 4 38 L 4 38 C 5.104 38 6 38.896 6 40 L 6 40 C 6 40.53 6.21 41.03 6.58 41.41 C 6.95 41.78 7.45 41.99 7.98 42 L 8.16 42 L 8.16 42 L 8.16 42 L 8.16 42 L 8.16 42 Z  M 6 32 L 6 32 C 6 33.104 5.104 34 4 34 L 4 34 C 2.896 34 2 33.104 2 32 L 2 32 L 2 10 C 2 7.24 4.24 5 7 5 L 41 5 C 43.76 5 46 7.24 46 10 L 46 16 L 46 16 C 46 17.104 45.104 18 44 18 L 44 18 C 42.896 18 42 17.104 42 16 L 42 16 L 42 12 C 42 10.344 40.656 9 39 9 L 9 9 C 7.344 9 6 10.344 6 12 L 6 32 L 6 32 L 6 32 L 6 32 Z  M 42 26 L 42 26 C 42 24.896 42.896 24 44 24 L 44 24 C 45.104 24 46 24.896 46 26 L 46 26 L 46 41 C 46 43.76 43.76 46 41 46 L 16 46 L 16 46 C 14.896 46 14 45.104 14 44 L 14 44 C 14 42.896 14.896 42 16 42 L 16 42 L 39 42 C 40.656 42 42 40.656 42 39 L 42 26 L 42 26 L 42 26 Z  M 11.57 26.51 L 11.57 26.51 C 10.742 26.527 10.057 25.868 10.04 25.04 L 10.04 25.04 C 10.023 24.212 10.682 23.527 11.51 23.51 L 11.51 23.51 L 11.97 23.5 C 11.98 23.5 11.99 23.5 12 23.5 C 14.98 23.5 17.86 24.56 20.12 26.5 C 22.39 28.43 23.89 31.11 24.35 34.05 L 24.35 34.05 C 24.477 34.867 23.917 35.635 23.1 35.765 L 23.1 35.765 C 22.283 35.895 21.517 35.337 21.39 34.52 L 21.39 34.52 C 21.03 32.29 19.9 30.25 18.18 28.78 C 16.46 27.31 14.28 26.5 12.02 26.5 L 11.57 26.51 L 11.57 26.51 Z  M 11.62 20.5 L 11.62 20.5 C 10.792 20.511 10.113 19.848 10.105 19.02 L 10.105 19.02 C 10.097 18.192 10.762 17.511 11.59 17.5 L 11.59 17.5 L 11.98 17.5 C 11.99 17.5 11.99 17.5 12 17.5 C 16.61 17.5 21.05 19.22 24.46 22.32 C 27.87 25.42 29.99 29.69 30.42 34.28 L 30.42 34.28 C 30.497 35.102 29.89 35.833 29.065 35.91 L 29.065 35.91 C 28.24 35.987 27.507 35.382 27.43 34.56 L 27.43 34.56 C 27.08 30.71 25.3 27.14 22.44 24.54 C 19.59 21.94 15.87 20.5 12.01 20.5 L 11.62 20.5 Z " fill-rule="evenodd" fill="url(#_lgradient_11)"/></svg>
